X: 36025
T: Scan Tester's
R: polka
M: 2/4
K: Dmajor
|:B/=c/|dd/d/ dd|d^c =cB|A>B AG|F3 D/E/|
F E/F/ GF/G/|Ad d>B|AG FE|D3:|
K:G
|:B/c/|dG BA/B/|cE A>B|ce dc|B2 B>c|
dG BA/B/|cE A>B|cd/c/ BA|G3:|

